packages/kaspersky-hexa-ui-icons/src/iconsSVGs/64x42/FlagAo.svg

<svg xmlns="http://www.w3.org/2000/svg" width="64" height="42" fill="none" viewBox="0 0 64 42"><g clip-path="url(#a)"><rect width="64" height="42" fill="#fff" rx="5"/><path fill="url(#b)" d="M0-1.8571h64v45.7143H0z"/><path fill="#262626" fill-rule="evenodd" d="M0 42h64V22.4H0z" clip-rule="evenodd"/><path fill="#dd2137" fill-rule="evenodd" d="M0 22.4h64V0H0z" clip-rule="evenodd"/><path fill="#f8d84b" fill-rule="evenodd" d="M37.0234 24.5494a9.16 9.16 0 0 0 .89-2.169c1.3069-4.8774-1.5876-9.8908-6.465-11.1977-.8129-.2178-1.6484.2646-1.8663 1.0775s.2646 1.6485 1.0775 1.8663c3.2516.8713 5.1813 4.2135 4.31 7.4651a6.1 6.1 0 0 1-.4919 1.2606l-4.6802-3.1201c-.7002-.4668-1.6463-.2776-2.1131.4227s-.2776 1.6463.4226 2.1131l4.2909 2.8606c-1.3975.9054-3.1583 1.238-4.8934.7731-.8129-.2178-1.6484.2646-1.8663 1.0775s.2646 1.6485 1.0775 1.8663c3.0472.8165 6.1475-.0069 8.3638-1.9292l2.1704 1.447c.7002.4668 1.6463.2776 2.1131-.4227s.2776-1.6463-.4226-2.1131zm-6.5472-8.1208c0 .8416-.6823 1.5238-1.5238 1.5238s-1.5238-.6822-1.5238-1.5238.6822-1.5238 1.5238-1.5238 1.5238.6822 1.5238 1.5238" clip-rule="evenodd"/></g><defs><linearGradient id="b" x1="0" x2="0" y1="-2" y2="44" gradientUnits="userSpaceOnUse"><stop stop-color="#ff323e"/><stop offset="1" stop-color="#fd0d1b"/></linearGradient><clipPath id="a"><rect width="64" height="42" fill="#fff" rx="5"/></clipPath></defs></svg>

<svg width="64" height="42" viewBox="0 0 64 42" fill="none" xmlns="http://www.w3.org/2000/svg">
<g clip-path="url(#clip0_37941_2181)">
<rect width="64" height="42" rx="5" fill="white"/>
<rect y="-1.85712" width="64" height="45.7143" fill="url(#paint0_linear_37941_2181)"/>
<path fill-rule="evenodd" clip-rule="evenodd" d="M0 42H64V22.4H0V42Z" fill="#262626"/>
<path fill-rule="evenodd" clip-rule="evenodd" d="M0 22.4H64V0H0V22.4Z" fill="#DD2137"/>
<path fill-rule="evenodd" clip-rule="evenodd" d="M37.0234 24.5494C37.4036 23.8825 37.7054 23.1566 37.9134 22.3804C39.2203 17.503 36.3258 12.4896 31.4484 11.1827C30.6355 10.9649 29.8 11.4473 29.5821 12.2602C29.3643 13.0731 29.8467 13.9087 30.6596 14.1265C33.9112 14.9978 35.8409 18.34 34.9696 21.5916C34.85 22.038 34.6838 22.4595 34.4777 22.8522L29.7975 19.7321C29.0973 19.2653 28.1512 19.4545 27.6844 20.1548C27.2176 20.855 27.4068 21.8011 28.107 22.2679L32.3979 25.1285C31.0004 26.0339 29.2396 26.3665 27.5045 25.9016C26.6916 25.6838 25.8561 26.1662 25.6382 26.9791C25.4204 27.792 25.9028 28.6276 26.7157 28.8454C29.7629 29.6619 32.8632 28.8385 35.0795 26.9162L37.2499 28.3632C37.9501 28.83 38.8962 28.6408 39.363 27.9405C39.8299 27.2403 39.6406 26.2942 38.9404 25.8274L37.0234 24.5494ZM30.4762 16.4286C30.4762 17.2702 29.7939 17.9524 28.9524 17.9524C28.1108 17.9524 27.4286 17.2702 27.4286 16.4286C27.4286 15.587 28.1108 14.9048 28.9524 14.9048C29.7939 14.9048 30.4762 15.587 30.4762 16.4286Z" fill="#F8D84B"/>
</g>
<defs>
<linearGradient id="paint0_linear_37941_2181" x1="0" y1="-1.85712" x2="0" y2="43.8572" gradientUnits="userSpaceOnUse">
<stop stop-color="#FF323E"/>
<stop offset="1" stop-color="#FD0D1B"/>
</linearGradient>
<clipPath id="clip0_37941_2181">
<rect width="64" height="42" rx="5" fill="white"/>
</clipPath>
</defs>
</svg>
